X: 17277
T: Herman The German's
R: jig
M: 6/8
K: Eminor
|:~E3 E^DE|G2E F3|BAG ABA|GFE ^D2D|
~E3 E^DE|G2E F3|BAG ABA|1 G2F E2B:|2 G2F E2d||
|:BAG gdB|fdB g2d|BAG gdB|fdB a2d|
BAG gdB|fdB e2d|BAG ABA|1 G2F E2d:|2 G2F E2B||

